X: 1
T: Across The Black River
R: jig
M: 6/8
L: 1/8
K: Bmin
B3 BAB|FAB A2f|ecA ABc|B2A F2E|
B3 BAB|AFE Ace|f3 fec|1 B3 BAF:|2 B3 Bcd||
efe e2c|B2A F2E|EFA BAB|c2e Bcd|
efe e2c|B2A F2E|BcB A2E|1 F3 Fcd:|2 F3 F2A||


Tune 5114	Setting 17417

